X:138
T:RVW2/2/138 Ground For The Floor
C:Elias Coombes, Salisbury, Wiltshire, 1 September 1904
L:1/8
Q:1/4=120
M:4/4
I:linebreak $
K:G
"^(Editorial suggestion  " D2 | G2 AA B2 GG | c2 AA G2 G2 | A2 FA d2 F2 | AAGE D2 dd | 
w: I've|lived in the wood for a|num- ber of years *|||
d2 BG F"^(a)" E3 |$ ecAG GF D2 | G2 AA B!fermata!GGB | d2 ee dB z2 | G2 FD e!fermata!ddd | 
w: |||||
gddc cBBc | d2 d>c B2 ||$ D2 | G2 AA B2 GG | c2 AA G2 G2 | A2 FA d2 F2 | AAGE D2 dd | 
w: |||||||
d2 BG F"^(a) var." E2 c |$ ecAG GF D2 | G2 AA B!fermata!GGB | d2 ee dB z2 | G2 FD e!fermata!ddd | 
w: |||||
gddc cBBc | d2 d>c B2 |] 
w: ||



